src/icons/add-list.svg

<?xml version="1.0" encoding="UTF-8"?>
<svg xmlns="http://www.w3.org/2000/svg" xmlns:xlink="http://www.w3.org/1999/xlink" width="32" height="32" viewBox="0 0 32 32" version="1.1">
<g id="surface1">
<path style=" stroke:none;fill-rule:nonzero;fill:rgb(0%,0%,0%);fill-opacity:1;" d="M 3.839844 1.28125 L 3.839844 30.71875 L 21.78125 30.71875 C 22.847656 31.519531 24.167969 32 25.601562 32 C 29.128906 32 32 29.128906 32 25.601562 C 32 22.984375 30.414062 20.734375 28.160156 19.738281 L 28.160156 1.28125 Z M 8.320312 8.960938 L 10.878906 8.960938 L 10.878906 10.238281 L 8.320312 10.238281 Z M 12.800781 8.960938 L 23.679688 8.960938 L 23.679688 10.238281 L 12.800781 10.238281 Z M 8.320312 12.800781 L 10.878906 12.800781 L 10.878906 14.078125 L 8.320312 14.078125 Z M 12.800781 12.800781 L 23.679688 12.800781 L 23.679688 14.078125 L 12.800781 14.078125 Z M 8.320312 16.640625 L 10.878906 16.640625 L 10.878906 17.921875 L 8.320312 17.921875 Z M 12.800781 16.640625 L 23.679688 16.640625 L 23.679688 17.921875 L 12.800781 17.921875 Z M 8.320312 20.480469 L 10.878906 20.480469 L 10.878906 21.761719 L 8.320312 21.761719 Z M 12.800781 20.480469 L 21.78125 20.480469 C 21.296875 20.84375 20.863281 21.277344 20.5 21.761719 L 12.800781 21.761719 Z M 25.601562 20.480469 C 28.433594 20.480469 30.71875 22.765625 30.71875 25.601562 C 30.71875 28.433594 28.433594 30.71875 25.601562 30.71875 C 22.765625 30.71875 20.480469 28.433594 20.480469 25.601562 C 20.480469 22.765625 22.765625 20.480469 25.601562 20.480469 Z M 24.960938 22.398438 L 24.960938 24.960938 L 22.398438 24.960938 L 22.398438 26.238281 L 24.960938 26.238281 L 24.960938 28.800781 L 26.238281 28.800781 L 26.238281 26.238281 L 28.800781 26.238281 L 28.800781 24.960938 L 26.238281 24.960938 L 26.238281 22.398438 Z M 24.960938 22.398438 "/>
</g>
</svg>

<svg role="img" viewBox="0 0 32 32" xmlns="http://www.w3.org/2000/svg"><path d="M3.84 1.281V30.72h17.94A6.34 6.34 0 0 0 25.601 32 6.407 6.407 0 0 0 32 25.602c0-2.618-1.586-4.868-3.84-5.864V1.281Zm4.48 7.68h2.559v1.277H8.32Zm4.48 0h10.88v1.277H12.8ZM8.32 12.8h2.559v1.277H8.32Zm4.48 0h10.88v1.277H12.8Zm-4.48 3.84h2.559v1.28H8.32Zm4.48 0h10.88v1.28H12.8Zm-4.48 3.84h2.559v1.28H8.32Zm4.48 0h8.981a6.423 6.423 0 0 0-1.281 1.28h-7.7Zm12.802 0a5.11 5.11 0 0 1 5.117 5.12 5.11 5.11 0 0 1-5.117 5.118 5.11 5.11 0 0 1-5.122-5.117 5.111 5.111 0 0 1 5.122-5.122m-.641 1.917v2.563h-2.563v1.277h2.563v2.563h1.277v-2.563h2.563v-1.277h-2.563v-2.563Zm0 0" style="stroke:none;fill-rule:nonzero;fill:rgb(0%,0%,0%);fill-opacity:1"/></svg>
